X:9
T: Tationenlied (Band 1), S. 31
N: P0783
O: Lothringen
S: PINCK, Louis: Verklingende Weisen, Bd 1, Metz 1928]
R: geistliche, religiöse Lieder]
M: 4/4
L: 1/8
K: D
A2 | F3DD2E2 | F6
D2 | E2D2C2D2 | E4D2
A2 | A2A2A2A2 | B6
cc | d2A2A2G2 | F4E2
D2 | E3DE2F2 | G6
E2 | F2E2F2G2 | A6
A2 | B3AB2c2 | d2
AAB2G2 | F4E4 | D6

